!!!!SEGMENT: pl-kk--kk-i-386--002-001_anonim--missa-seconda-rorate.krn
!!!cenid: 18xx:4508
!!!COM: Anonim
!!!COM-rismID: pe30004985
!!!CDT:
!!!CNT:
!!!OPR: Missa seconda
!!!OTL: Rorate
!!!OMV: 001
!!!PDT:
!!!AGN: Sacred
!!!YEC: Copyright 2022 Narodowy Instytut Fryderyka Chopina (https://polishscores.org)
!!!YEM: License CC-BY-4.0 (https://creativecommons.org/licenses/by/4.0)
!!!SMS-siglum: PL-Kk
!!!SMS-shelfmark: Kk.I.386
!!!SMS-variant:
!!!SMS-altvar:
!!!SMS-shelfwork: 002-001 M
!!!NIFC-rismSourceID: 1001218240
!!!NIFC-rismChildID: 1001218243
!!!NIFC-islandoraID: pl-kk:16060
!!!URL-pdf-islandora: https://repozytorium.nifc.pl/islandora/object/pl-kk%3A16060/datastream/PDF/view
!!!URL-scan: https://polish.musicsources.pl/pl/lokalizacje/galeria/rekopisy/7134/3 @EN{Scan on Polish Music Sources Website} @PL{Skany w portalu Dziedzictwo Muzyki Polskiej w otwartym dostępie}
!!!IIIF:
!!!ONB-nifc: UWAGA: Części Missy Seconda: Rorate, Kyrie, Gloria, Graduale, Offertorium, Sanctus, Benedicuts, Agnus. Zakres skanów: S – 6-9, A – 15-19, T – 25-29, B – 35-39
!!!AIN: 1 alto 1 bass 1 soprn 1 tenor
!!!key:
**kern	**text	**kern	**text	**kern	**text	**kern	**text
*part4	*part4	*part3	*part3	*part2	*part2	*part1	*part1
*staff4	*staff4	*staff3	*staff3	*staff2	*staff2	*staff1	*staff1
*I"Basso.	*	*I"Tenore.	*	*I"Alto.	*	*I"Soprano.	*
*I'B.	*	*I'T.	*	*I'A.	*	*I'S.	*
*Ibass	*	*Itenor	*	*Ialto	*	*Isoprn	*
*ICvox	*	*ICvox	*	*ICvox	*	*ICvox	*
*clefF4	*	*clefC4	*	*clefC3	*	*clefC1	*
*k[b-]	*	*k[b-]	*	*k[b-]	*	*k[b-]	*
*F:	*	*F:	*	*F:	*	*F:	*
*M2/2	*	*M2/2	*	*M2/2	*	*M2/2	*
*met(c|)	*	*met(c|)	*	*met(c|)	*	*met(c|)	*
=1	=1	=1	=1	=1	=1	=1	=1
*2\right	*	*2\right	*	*2\right	*	*2\right	*
!LO:TX:a:t=in F.	!	!LO:TX:a:t=in F.	!	!LO:TX:a:t=in F.	!	!LO:TX:a:t=in F.	!
2F\	Ro-	2c\	Ro-	2f\	Ro-	2cc\	Ro-
2B-\	-ra-	2B-\	-ra-	2f\	-ra-	2dd\	-ra-
=2	=2	=2	=2	=2	=2	=2	=2
2A\	-te	2c\	-te,	2f\	-te	2cc\	-te
4r	.	4r	.	4r	.	4r	.
4B-\	ro-	4B-\	Ro-	4f\	Ro-	8dd\L	ro-
.	.	.	.	.	.	8cc\J	.
=3	=3	=3	=3	=3	=3	=3	=3
4G\	-ra-	4B-\	-ra-	4e\	-ra-	4b-\	-ra-
4F\	-te	4c\	-te	4f\	-te	4a\	-te
4c\	ce-	2c\	ce-	(4f\	ce-	2g\	ce-
4C/	.	.	.	4e\)	.	.	.
=4	=4	=4	=4	=4	=4	=4	=4
4F\	-li	4c\	-li	4f\	-li,	4a\	-li
4F\	ro-	4A\	ro-	4f\	Ro-	4cc\	ro-
4A\	-ra-	4c\	-ra-	4f\	-ra-	4cc\	-ra-
4F\	-te	4A\	-te	4f\	-te	4cc\	-te
=5	=5	=5	=5	=5	=5	=5	=5
4E\	ce	2B-\	ce-	(4g\	ce-	2cc\	ce-
4D\	.	.	.	4f\)	.	.	.
!	!	!	!	!LO:LB:g=original	!	!	!
4E\	-li	4B-\	-li	4g\	-li,	4cc\	-li,
4C/	ro-	4B-\	ro-	4e\	Ro-	4cc\	ro-
!LO:LB:g=original	!	!	!	!	!	!LO:LB:g=original	!
=6	=6	=6	=6	=6	=6	=6	=6
2F\	-ra-	2A\	-ra-	1a	-ra-	2cc\	-ra-
!	!	!LO:LB:g=original	!	!	!	!	!
2B-\	.	[2d\	.	.	.	2f/	.
=7	=7	=7	=7	=7	=7	=7	=7
2E\	.	2d\]	.	1g	.	2b-\	.
2A\	.	[2c\	.	.	.	2e/	.
=8	=8	=8	=8	=8	=8	=8	=8
2D\	.	2c\]	.	1f	.	2a\	.
2G\	.	[2B-\	.	.	.	2d/	.
=9	=9	=9	=9	=9	=9	=9	=9
2C/	.	2B-\]	.	2e\	.	2g\	.
2F\	-te	2A\	-te	2f\	-te	2c/	-te
=10	=10	=10	=10	=10	=10	=10	=10
4D/	ce-	4Bn\	ce-	4f\	ce-	4f/	ce-
4C/	-li	4c\	-li	4e\	-li	4g/	-li
4G\	de-	4c\	de-	4d\	de-	4g/	de-
4GG/	-su-	4B\	-su-	4d\	-su-	4g/	-su-
=11	=11	=11	=11	=11	=11	=11	=11
4C/	-per.	4c\	-per	4e\	-per,	4g\	-per
4r	.	4c\	ro-	4e\	Ro-	4g\	ro-
2r	.	4c\	-ra-	4e\	-ra-	4g\	-ra-
.	.	4c\	-te	4e\	-te	4g\	-te-
=12	=12	=12	=12	=12	=12	=12	=12
!LO:TX:a:t=5.	!	!	!	!	!	!	!
00r	.	2c\	ce-	2f\	ce-	2a\	-ce-
.	.	2B-X\	.	2g\	.	2dd\	.
!	!	!	!	!	!	!LO:LB:g=original	!
=13	=13	=13	=13	=13	=13	=13	=13
.	.	2A\	.	2g\	.	1cc	.
.	.	2d\	.	2f\	.	.	.
!	!	!LO:LB:g=original	!	!LO:LB:g=original	!	!	!
=14	=14	=14	=14	=14	=14	=14	=14
.	.	2G/	.	2f\	.	1b-X	.
.	.	2c\	.	2e\	.	.	.
=15	=15	=15	=15	=15	=15	=15	=15
.	.	2F/	.	2e\	.	2a\	.
.	.	2B-\	-li	2d\	-li	2f/	-li
=16	=16	=16	=16	=16	=16	=16	=16
1r	.	4G/	ce-	4e\	ce-	4b-\	ce-
.	.	4F/	-li	4f\	-li	4a\	-li
.	.	4c\	de-	4f\	de-	4.g\	de
.	.	4c\	-su-	4e\	-su-	.	.
.	.	.	.	.	.	8g\	su-
=17	=17	=17	=17	=17	=17	=17	=17
4r	.	4F/	-per,	4f\	-per,	4a\	-per,
4F\	et	4A\	et	4f\	et	4cc\	et
4F\	nu-	4A\	nu-	4f\	nu-	4cc\	nu-
4G\	-bes	4G/	-bes	4e\	-bes	4cc\	-bes
!LO:LB:g=original	!	!	!	!	!	!	!
=18	=18	=18	=18	=18	=18	=18	=18
2A\	plu-	2F/	plu-	2f\	plu-	2a\	plu-
2B-\	-ant	2B-\	-ant	2f\	-ant	2dd\	-ant
=19	=19	=19	=19	=19	=19	=19	=19
2E\	nu-	2c\	nu-	2g\	nu-	2b-\	nu-
2F\	-bes	2c\	-bes	2f\	-bes	2a\	-bes
=20	=20	=20	=20	=20	=20	=20	=20
2C#X/	plu-	2A\	plu-	2e\	plu-	2g\	plu-
2D\	-ant	2A\	-ant	2f\	-am	2dd\	-ant
!	!	!	!	!	!	!LO:LB:g=original	!
=21	=21	=21	=21	=21	=21	=21	=21
4A\	plu-	4A/	plu-	4f\	plu-	4cc#X\	plu-
4B-\	-ant	4F/	-ant	4f\	-ant	4dd\	-ant
!	!	!LO:LB:g=original	!	!LO:LB:g=original	!	!	!
4G\	ju-	4B-\	ju-	2e\	jus-	4dd\	ju-
4A\	.	4A\	.	.	.	4cc#\	.
=22	=22	=22	=22	=22	=22	=22	=22
2D\	-stum	2A\	-stum	2f\	-tum	2dd\	-stum,
4A\	nu-	4A\	nu-	4e\	nu-	4ccn\	nu-
4G\	-bes	4B-\	-bes	4e\	-bes	4b-\	-bes
=23	=23	=23	=23	=23	=23	=23	=23
2F\	plu-	2c\	plu-	2f\	plu-	2a\	plu-
2B-\	-ant	2B-\	-ant	2f\	-ant	2dd\	-ant
=24	=24	=24	=24	=24	=24	=24	=24
2G\	nu-	2B-\	nu-	2e\	nu-	2b-X\	nu-
2F\	-bes	2A\	-bes	2f\	-bes	2cc\	-bes
=25	=25	=25	=25	=25	=25	=25	=25
4E\	plu-	4F/	plu-	4g\	plu-	4cc\	plu-
4F\	-ant	4G/	-ant	4f\	-ant	4cc\	-ant
4c\	ju-	4.F/	ju-	4f\	ju-	2cc\	jus-
4C/	.	.	.	4e\	.	.	.
.	.	8F/	.	.	.	.	.
!LO:LB:g=original	!	!	!	!	!	!	!
=26	=26	=26	=26	=26	=26	=26	=26
4F\	-stum,	4G/	-stum.	4f\	-stum	4cc\	-tum
4r	.	4r	.	4r	.	4cc\	a-
2r	.	2r	.	2r	.	4a\	-pe-
.	.	.	.	.	.	4f\	-ri-
=27	=27	=27	=27	=27	=27	=27	=27
!LO:TX:a:t=9.	!	!LO:TX:a:t=5.	!	!LO:TX:a:t=2	!	!	!
00r	.	00r	.	0r	.	2dd\	-a-
!	!	!	!	!	!	!LO:LB:g=original	!
.	.	.	.	.	.	2a\	-tur
=28	=28	=28	=28	=28	=28	=28	=28
.	.	.	.	.	.	4b-\	ter-
.	.	.	.	.	.	4a\	.
.	.	.	.	.	.	4g\	.
.	.	.	.	.	.	4cc\	.
=29	=29	=29	=29	=29	=29	=29	=29
.	.	.	.	4r	.	4f/	-ra,
.	.	.	.	4f\	a-	4a/	a-
.	.	.	.	4e\	-pe-	4g/	-pe-
.	.	.	.	4c\	-ri-	4a/	-ri-
!	!	!	!	!LO:LB:g=original	!	!	!
=30	=30	=30	=30	=30	=30	=30	=30
.	.	.	.	2a\	-a-	2f/	-a-
.	.	.	.	2e\	-tur	2g/	-tur
=31	=31	=31	=31	=31	=31	=31	=31
00r	.	1r	.	4f\	ter-	4a\	ter-
.	.	.	.	4e\	.	4g\	.
.	.	.	.	4d\	.	2f/	.
.	.	.	.	4g\	.	.	.
=32	=32	=32	=32	=32	=32	=32	=32
.	.	4r	.	4c\	-ra	4e/	-ra,
.	.	4c\	a-	4e\	a-	4g\	a-
.	.	4A\	-pe-	4f\	-pe-	4a\	-pe-
.	.	4F/	-ri-	4f\	-ri-	4a\	-ri-
!	!	!LO:LB:g=original	!	!	!	!	!
=33	=33	=33	=33	=33	=33	=33	=33
.	.	2d\	-a-	2f\	-a-	4a\	-a-
.	.	.	.	.	.	4b-\	.
.	.	2A\	-tur	2f\	-tur	2cc\	-tur
!	!	!	!	!	!	!LO:LB:g=original	!
=34	=34	=34	=34	=34	=34	=34	=34
.	.	4B-/	ter-	2.f\	ter-	4dd\	ter-
.	.	4A/	.	.	.	4cc\	.
.	.	4G/	.	.	.	2b-X\	.
.	.	4c\	.	4e\	.	.	.
=35	=35	=35	=35	=35	=35	=35	=35
1r	.	4F/	-ra	4f\	-ra,	4a\	-ra,
.	.	4A/	a-	4f\	a-	4cc\	a-
.	.	4G/	-pe-	4g\	-pe-	4cc\	-pe-
.	.	4G/	-ri-	4f\	-ri-	4cc\	-ri-
=36	=36	=36	=36	=36	=36	=36	=36
4r	.	2A\	-a-	2f\	-a-	2cc\	-a-
4F\	a-	.	.	.	.	.	.
4E\	-pe-	2c\	-tur	2g\	-tur	2cc\	-tur
4C/	-ri-	.	.	.	.	.	.
!	!	!	!	!LO:LB:g=original	!	!	!
=37	=37	=37	=37	=37	=37	=37	=37
2A\	-a-	4A\	ter-	4a\	ter-	2.cc\	ter-
.	.	4c\	.	4g\	.	.	.
2E\	-tur	4d\	.	2f\	.	.	.
.	.	4G/	.	.	.	4bn\	.
=38	=38	=38	=38	=38	=38	=38	=38
4F\	ter-	2G/	-ra	2e\	-ra,	2cc\	-ra,
4E\	.	.	.	.	.	.	.
4D\	.	2F/	ter-	2f\	ter-	2cc\	ter-
4G\	.	.	.	.	.	.	.
=39	=39	=39	=39	=39	=39	=39	=39
2C/	-ra	1G	.	2f\	.	1b-X	.
2AA/	a-	.	.	2e\	.	.	.
!	!	!LO:LB:g=original	!	!	!	!	!
=40	=40	=40	=40	=40	=40	=40	=40
2GG/	-pe-	2A\	-ra,	1f	.	2cc\	.
2C/	-ri-	[2d\	ter-	.	.	2dd\	.
=41	=41	=41	=41	=41	=41	=41	=41
2AA/	-a-	2d\]	.	2f\	.	1b-X	.
2BB-/	-tur	2B-\	.	2e\	.	.	.
!LO:LB:g=original	!	!	!	!	!	!LO:LB:g=original	!
=42	=42	=42	=42	=42	=42	=42	=42
1GG	ter-	4A/	-ra	4f\	-ra,	4cc\	-ra,
.	.	4G/	a-	4e\	a-	4cc\	a-
.	.	4A/	-pe-	4f\	-pe-	4cc\	-pe-
.	.	4A/	-ri-	4f\	-ri-	4a\	-ri-
=43	=43	=43	=43	=43	=43	=43	=43
4FF/	-ra	2F/	-a-	2f\	-a-	2a\	-a-
4c\	a-	.	.	.	.	.	.
4A\	-pe-	4A/	.	2f\	-tur	2cc\	-tur
4F\	-ri-	4F/	-tur	.	.	.	.
=44	=44	=44	=44	=44	=44	=44	=44
2d\	-a-	4B-\	ter-	2.f\	ter-	4dd\	ter-
.	.	4c\	.	.	.	4cc\	.
2A\	-tur	4d\	.	.	.	2b-\	.
.	.	4c\	.	4e\	.	.	.
!	!	!	!	!LO:PB:g=original	!	!	!
=45	=45	=45	=45	=45	=45	=45	=45
4B-\	ter-	2c\	-ra,	2f\	-ra,	2a\	-ra,
4A\	.	.	.	.	.	.	.
4G\	.	2d\	et	2f\	et	2b-\	et
4c\	.	.	.	.	.	.	.
=46	=46	=46	=46	=46	=46	=46	=46
2F\	-ra,	2G/	ger-	2e\	ger-	1cc	ger-
[2B-\	et-	2A\	.	2f\	.	.	.
!	!	!LO:LB:g=original	!	!	!	!	!
=47	=47	=47	=47	=47	=47	=47	=47
2B-\]	.	2.B-\	.	2.f\	.	2.dd\	.
2A\	.	.	.	.	.	.	.
.	.	4G/	-mi-	4e\	-mi-	4g\	-mi-
=48	=48	=48	=48	=48	=48	=48	=48
2.G\	-ger-	2A\	-net	2f\	-net	2a\	-net
.	.	4d\	Sal-	4f\	sal-	4a\	Sal-
4G\	-mi-	4d\	-va-	4f\	-va-	4a\	-va-
!	!	!	!	!	!	!LO:PB:g=original	!
=49	=49	=49	=49	=49	=49	=49	=49
2F\	-net	2d\	-to-	1g	-to-	2b-\	-to-
4d\	Sal-	2en\	.	.	.	2cc\	.
4c\	-va-	.	.	.	.	.	.
!LO:LB:g=original	!	!	!	!	!	!	!
=50	=50	=50	=50	=50	=50	=50	=50
4B-X\	-to-	2c\	.	1f	.	2a\	.
4G\	.	.	.	.	.	.	.
4c\	.	2d\	.	.	.	2b-\	.
4B-\	.	.	.	.	.	.	.
=51	=51	=51	=51	=51	=51	=51	=51
4A\	.	2B-X\	.	1e	.	2g\	.
4F\	.	.	.	.	.	.	.
4B-\	.	2c\	.	.	.	[2a\	.
4A\	.	.	.	.	.	.	.
=52	=52	=52	=52	=52	=52	=52	=52
4G\	.	2d\	.	2f\	.	2a\]	.
4E\	.	.	.	.	.	.	.
4A\	.	2c#X\	.	2g\	.	2g\	.
4G\	.	.	.	.	.	.	.
=53	=53	=53	=53	=53	=53	=53	=53
2F\	.	2d\	-rem	2f\	-rem	2a\	-rem,
2E\	.	4d\	Sal-	4f\	Sal-	4a\	Sal-
.	.	4d\	-va-	4e\	-va-	4b-\	-va-
!	!	!	!	!LO:LB:g=original	!	!	!
=54	=54	=54	=54	=54	=54	=54	=54
2D\	-rem	2c\	-to-	2f\	-to-	2cc\	-to-
!	!	!LO:LB:g=original	!	!	!	!	!
4F\	Sal-	[2B-X\	.	2f\	-rem	2dd\	.
4G\	-va-	.	.	.	.	.	.
=55	=55	=55	=55	=55	=55	=55	=55
2A\	-to-	2B-\]	.	1e	Sal-	2dd\	.
2B-\	.	2A\	.	.	.	2cc#X\	.
=56	=56	=56	=56	=56	=56	=56	=56
2G\	.	2A\	-rem	2f\	.	2dd\	-rem
!	!	!	!	!	!	!LO:LB:g=original	!
2A\	.	4A\	Sal-	4f\	.	4ccn\	Sal-
.	.	4B-\	-va-	4e\	-va-	4b-X\	-va-
=57	=57	=57	=57	=57	=57	=57	=57
2D\	-rem	2A\	-to-	1f	-to-	2cc\	-to-
!LO:LB:g=original	!	!	!	!	!	!	!
4F\	Sal-	[2G/	.	.	.	2dd\	.
4G\	-va-	.	.	.	.	.	.
=58	=58	=58	=58	=58	=58	=58	=58
2A\	-to-	2G/]	.	2e\	.	1cc	.
2B-\	.	[2A/	.	2f\	.	.	.
=59	=59	=59	=59	=59	=59	=59	=59
2c\	.	4A\]	.	2.f\	.	2dd\	.
.	.	4B-\	.	.	.	.	.
2F\	-rem	2G/	.	.	.	2cc\	.
.	.	.	.	4e\	.	.	.
=60	=60	=60	=60	=60	=60	=60	=60
4d\	Sal-	2A\	-rem	2f\	-ram	2cc\	-rem
4B-\	-va-	.	.	.	.	.	.
4c\	-to-	4G/	Sal-	4f\	Sal-	4dd\	Sal-
4C/	.	4G/	-va-	4f\	-va-	4dd\	-va-
=61	=61	=61	=61	=61	=61	=61	=61
2F\	-rem	1G	-to-	1f	-to-	[1dd	-to-
4BBn/	Sal-	.	.	.	.	.	.
4BB/	-va-	.	.	.	.	.	.
=62	=62	=62	=62	=62	=62	=62	=62
1BB-	-to-	1G	-rem	1e	-rem	2dd\]	.
.	.	.	.	.	.	4cc\	.
.	.	.	.	.	.	4b-X\	.
!	!	!LO:PB:g=original	!	!LO:LB:g=original	!	!	!
=63	=63	=63	=63	=63	=63	=63	=63
1C	.	2G/	sal-	2.d\	sal-	1a	.
.	.	2F/	-va-	.	.	.	.
.	.	.	.	4e\	.	.	.
=64	=64	=64	=64	=64	=64	=64	=64
1D	.	1d	-to-	1f	-va-	[1g	-rem
!	!	!	!	!	!	!LO:LB:g=original	!
=65	=65	=65	=65	=65	=65	=65	=65
1BBn	.	[1c	.	2e\	-to-	2g\]	Sal-
.	.	.	.	2f\	.	2a\	-va-
=66	=66	=66	=66	=66	=66	=66	=66
1C	.	1c]	.	2f\	.	1g	-to-
.	.	.	.	2e\	.	.	.
=67	=67	=67	=67	=67	=67	=67	=67
1FF	-rem.	1c;	-rem.	1f;	-rem.	1a;	-rem.
!LO:LB:g=original	!	!	!	!	!	!	!
=68||	=68||	=68||	=68||	=68||	=68||	=68||	=68||
!LO:TX:a:t=8.	!	!LO:TX:a:t=7.	!	!LO:TX:a:t=1.	!	!	!
00r	.	00r	.	1r	.	2a\	Be-
.	.	.	.	.	.	4a\	-ne-
.	.	.	.	.	.	4a\	-di-
=69	=69	=69	=69	=69	=69	=69	=69
.	.	.	.	2d\	Be-	2.dd\	-xi-
.	.	.	.	4d\	-ne-	.	.
.	.	.	.	4d\	-di-	4dd\	-sti
=70	=70	=70	=70	=70	=70	=70	=70
.	.	.	.	2.a\	-xi-	4cc#X\	Do-
.	.	.	.	.	.	4dd\	.
.	.	.	.	.	.	4ee\	.
.	.	.	.	4a\	-sti	4cc#\	-mi-
=71	=71	=71	=71	=71	=71	=71	=71
.	.	.	.	4f\	Do-	2dd\	-ne
.	.	.	.	4g\	.	.	.
.	.	.	.	4a\	.	4dd\	ter-
.	.	.	.	4f\	-mi-	4ccn\	.
!	!	!	!	!LO:LB:g=original	!	!	!
=72	=72	=72	=72	=72	=72	=72	=72
00r	.	0r	.	2g\	-ne,	4bn\	.
.	.	.	.	.	.	4cc\	.
.	.	.	.	4g\	ter-	4dd\	.
.	.	.	.	4f\	.	4b\	.
!	!	!	!	!	!	!LO:LB:g=original	!
=73	=73	=73	=73	=73	=73	=73	=73
.	.	.	.	4e\	.	2cc\	-ram,
.	.	.	.	4f\	.	.	.
.	.	.	.	4g\	.	4cc\	ter-
.	.	.	.	4e\	.	4b-X\	.
=74	=74	=74	=74	=74	=74	=74	=74
.	.	1r	.	2.f\	.	2a\	.
.	.	.	.	.	.	[2dd\	-ram
.	.	.	.	4f\	-ram	.	.
=75	=75	=75	=75	=75	=75	=75	=75
.	.	2A\	Be-	1e	tu-	2dd\]	tu-
.	.	4A\	-ne-	.	.	2cc#X\	.
.	.	4A\	-di-	.	.	.	.
=76	=76	=76	=76	=76	=76	=76	=76
2D\	Be-	2.d\	-xi-	4f\	-am,	2dd\	-am
.	.	.	.	4f\	be-	.	.
4D\	-ne-	.	.	4f\	-ne-	2r	.
4D\	-di-	4d\	-sti	4f\	-di-	.	.
=77	=77	=77	=77	=77	=77	=77	=77
2.A\	-xi-	4c#X\	Do-	2e\	-xi-	1a	ter-
.	.	4d\	.	.	.	.	.
.	.	4e\	.	2e\	-sti	.	.
4A\	-sti	4c#\	-mi-	.	.	.	.
!	!	!LO:LB:g=original	!	!	!	!	!
=78	=78	=78	=78	=78	=78	=78	=78
4F\	Do-	2d\	-ne	2.f\	Do-	1a	-ram
4G\	.	.	.	.	.	.	.
4A\	.	4d\	ter-	.	.	.	.
4F\	-mi-	4cn\	-ram	4f\	-mi-	.	.
=79	=79	=79	=79	=79	=79	=79	=79
2G\	-ne,	4Bn\	ter-	2d\	-ne	2bn\	tu-
.	.	4c\	.	.	.	.	.
!	!	!	!	!LO:LB:g=original	!	!	!
4G\	ter-	4d\	.	2d\	ter-	2g\	.
4F\	.	4B\	.	.	.	.	.
=80	=80	=80	=80	=80	=80	=80	=80
4E\	.	2c\	-ram	1e	-ram	1g	-am
4F\	.	.	.	.	.	.	.
4G\	.	4c\	ter-	.	.	.	.
4E\	-ram	4B-X\	.	.	.	.	.
=81	=81	=81	=81	=81	=81	=81	=81
2F\	ter-	4A\	.	2c\	ter-	1a	tu-
.	.	4A\	-ram	.	.	.	.
2D\	-ram	[2d\	tu-	2f\	.	.	.
!LO:PB:g=original	!	!	!	!	!	!	!
=82	=82	=82	=82	=82	=82	=82	=82
2A\	tu-	2d\]	.	2e\	-ram	2a\	-am
!	!	!	!	!	!	!LO:LB:g=original	!
2AA/	.	2c#X\	.	2e\	tu-	4a\	a-
.	.	.	.	.	.	4a\	-ver-
=83	=83	=83	=83	=83	=83	=83	=83
2D/	-am	2d\	-am	2f\	-am,	4f/	-ti-
.	.	.	.	.	.	4g/	.
4D/	a-	4d\	a-	4f\	a-	4a/	.
4D/	-ver-	4d\	-ver-	4d\	-ver-	4f/	.
=84	=84	=84	=84	=84	=84	=84	=84
4C#X/	-ti-	1A	-ti-	4e\	-ti-	2e/	-sti
4D/	.	.	.	4f\	.	.	.
4E/	.	.	.	4g\	.	4r	.
4C#/	.	.	.	4e\	.	4a\	cap-
!	!	!LO:LB:g=original	!	!	!	!	!
=85	=85	=85	=85	=85	=85	=85	=85
2D/	-sti	2.A\	-sti	2f\	.	4f/	-ti-
.	.	.	.	.	.	4g/	.
(4D/	cap-	.	.	4f\	-sti	4a/	.
4Cn/)	.	4A\	cap-	4f\	cap-	4f/	-vi-
=86	=86	=86	=86	=86	=86	=86	=86
4BBn/	-ti-	2.Bn\	-ti-	4d\	-ti-	2g/	-ta-
4C/	.	.	.	4e\	-vi-	.	.
!	!	!	!	!LO:LB:g=original	!	!	!
4D/	-vi-	.	.	4f\	-ta-	4g/	-tem
4BB/	.	4d\	-vi-	4d\	-tem	4g/	cap-
=87	=87	=87	=87	=87	=87	=87	=87
2C/	-ta-	2c\	-ta-	2e\	cap-	4e/	-ti-
.	.	.	.	.	.	4f/	.
4C/	-tem	4c\	-tem	4c/	-ti-	4g/	.
4c\	cap-	4c\	cap-	4c/	-vi-	4e/	-vi-
=88	=88	=88	=88	=88	=88	=88	=88
(4A\	-ti-	2c\	-ti-	2.f\	-ta-	2f/	-ta-
4B-X\	.	.	.	.	.	.	.
!LO:LB:g=original	!	!	!	!	!	!	!
4c\	-vi-	2c\	-vi-	.	.	4f/	-tem
4A\)	.	.	.	4e-X\	.	4cc\	cap-
!	!	!	!	!	!	!LO:LB:g=original	!
=89	=89	=89	=89	=89	=89	=89	=89
2B-\	-ta-	2d\	-ta-	4d\	.	2b-X\	-ti-
.	.	.	.	4en\	.	.	.
2F\	-tem	2c\	-tem	2f\	-tem	2a\	-vi-
=90	=90	=90	=90	=90	=90	=90	=90
2c\	Ja-	1c	Ja-	2f\	Ja-	1g	-ta-
2C/	.	.	.	2e\	.	.	.
=91	=91	=91	=91	=91	=91	=91	=91
2F\	-cob,	2c\	-cob,	4f\	-cob	2a\	-tem
.	.	.	.	4g\	cap-	.	.
2AA/	cap-	2c\	cap-	4a\	-ti-	2cc\	cap-
.	.	.	.	4f\	-vi-	.	.
=92	=92	=92	=92	=92	=92	=92	=92
4BB-X/	-ti-	4B-X\	-ti-	2f\	-ta-	4dd\	-ti-
4C/	.	4B-\	-vi-	.	.	4dd\	-vi-
4D/	-vi-	4B-\	-ta-	2f\	-tem	4dd\	-ta-
4BB-/	.	4B-\	-tem	.	.	4dd\	-tem
!	!	!LO:LB:g=original	!	!LO:LB:g=original	!	!	!
=93	=93	=93	=93	=93	=93	=93	=93
2C/	-ta-	2G/	Ja-	2e\	Ja-	2cc\	Ja-
2F\	-tem	4A/	.	2f\	.	2a\	.
.	.	4B-X/	.	.	.	.	.
=94	=94	=94	=94	=94	=94	=94	=94
!LO:TX:a:t=2	!	!	!	!	!	!	!
[1C	Ja-	[1c	.	2g\	.	2b-\	.
.	.	.	.	2f\	.	2a\	.
=95	=95	=95	=95	=95	=95	=95	=95
1C]	.	1c]	.	2f\	.	1g	.
.	.	.	.	2e\	.	.	.
=96	=96	=96	=96	=96	=96	=96	=96
1FF	-cob.	1c;	-cob.	1f	-cob,	1a	-cob.
!	!	!	!	!	!	!LO:LB:g=original	!
=97||	=97||	=97||	=97||	=97||	=97||	=97||	=97||
!LO:TX:a:t=2	!	!	!	!	!	!	!
0r	.	2r	.	2r	.	2r	.
.	.	[2f\	Glo-	2f\	Glo-	2a\	Glo-
=98	=98	=98	=98	=98	=98	=98	=98
.	.	2f\]	.	2g\	.	2bn\	.
.	.	4en\	-ri-	4g\	-ri-	4cc#X\	-ri-
.	.	4e\	-a	4g\	-a	4cc#\	-a
=99	=99	=99	=99	=99	=99	=99	=99
2r	.	1d	Pa-	2f\	Pa-	2dd\	Pa-
[2B-\	Glo-	.	.	2d\	.	2f/	.
!LO:LB:g=original	!	!	!	!	!	!	!
=100	=100	=100	=100	=100	=100	=100	=100
2B-\]	.	2c\	-tri	2e\	-tri	2g\	-tri
4A\	-ri-	2c\	et	2f\	et	2a\	et
4A\	-a	.	.	.	.	.	.
!	!	!	!	!LO:LB:g=original	!	!	!
=101	=101	=101	=101	=101	=101	=101	=101
2.G\	Fi-	2.d\	Fi-	2.f\	Fi-	2.b-X\	Fi-
4G\	-li-	4B-X\	-li-	4e\	-li-	4b-\	-li-
=102	=102	=102	=102	=102	=102	=102	=102
2F\	-o	2c\	-o	2f\	-o,	2a\	-o,
!	!	!LO:LB:g=original	!	!	!	!	!
4c\	et	4c\	et	4e\	et	4g\	et
4B-\	Spi-	4c\	Spi-	4e\	spi-	4g\	Spi-
=103	=103	=103	=103	=103	=103	=103	=103
2A\	-ri-	2c\	-ri-	2f\	-ri-	2a\	-ri-
4G\	-tu-	4B-X\	-tu-	4e\	-tu-	4b-\	-tu-
4F\	-i	4c\	-i	4f\	-i	4a\	-i
!	!	!	!	!	!	!LO:LB:g=original	!
=104	=104	=104	=104	=104	=104	=104	=104
2E\	san-	[1c	san-	2g\	san-	2g\	san-
2F\	.	.	.	2f\	.	2a\	.
=105	=105	=105	=105	=105	=105	=105	=105
2c\	.	1c]	.	2f\	.	1g	.
2C/	.	.	.	2e\	.	.	.
=106	=106	=106	=106	=106	=106	=106	=106
2F\	-cto	2c\	-cto	2f\	-cto,	2a\	-cto,
2r	.	4c\	si-	4e\	si-	4g\	si-
.	.	4c\	-cut	4e\	-cut	4g\	-cut
=107	=107	=107	=107	=107	=107	=107	=107
!LO:TX:a:t=1.	!	!	!	!	!	!	!
1r	.	4c\	e-	4d\	e-	4f/	e-
.	.	4c\	-rat	4d\	-rat	4f/	-rat
.	.	4B-X\	in	4e\	in	4g/	in-
.	.	4B-\	prin-	4e\	prin-	4g/	-prin-
!	!	!	!	!LO:LB:g=original	!	!	!
=108	=108	=108	=108	=108	=108	=108	=108
2r	.	4A/	-ci-	4f\	-ci-	4a\	-ci-
.	.	4A/	-pi-	4f\	-pi-	4a\	-pi-
2F\	et	4A/	-o	4f\	-o	2a\	-o,
.	.	4A/	et	4f\	et	.	.
!LO:LB:g=original	!	!	!	!	!	!	!
=109	=109	=109	=109	=109	=109	=109	=109
!	!	!	!	!	!	!LO:TX:a:t=2	!
2F\	nunc	2Bn\	nunc	2g\	nunc	0r	.
!	!	!LO:LB:g=original	!	!	!	!	!
2E\	et	2c#X\	et	2g\	et	.	.
=110	=110	=110	=110	=110	=110	=110	=110
4D/	sem-	4d\	sem-	4f\	sem-	.	.
4D/	-per	4d\	-per	4f\	-per	.	.
4B-\	et	4d\	et	4f\	et	.	.
4B-\	in	4d\	in	4f\	in	.	.
=111	=111	=111	=111	=111	=111	=111	=111
2B-\	se-	2G/	se-	2e\	se-	2.cc\	et
2A\	.	2A/	.	2f\	.	.	.
.	.	.	.	.	.	4cc\	in
=112	=112	=112	=112	=112	=112	=112	=112
2.G\	.	2d\	.	2f\	.	2.b-X\	se-
.	.	2G/	-cu-	2e\	-cu-	.	.
4G\	-cu-	.	.	.	.	4b-\	-cu-
!	!	!	!	!	!	!LO:LB:g=original	!
=113	=113	=113	=113	=113	=113	=113	=113
2F\	-la	2c\	-la	2f\	-la	2a\	-la
4c\	se-	4c\	se-	4e\	se-	4g\	se-
4B-\	-cu-	4c\	-cu-	4e\	-cu-	4g\	-cu-
!	!	!	!	!LO:LB:g=original	!	!	!
=114	=114	=114	=114	=114	=114	=114	=114
4A\	-lo-	4c\	-lo-	2f\	-lo-	2a\	-lo-
4G\	.	4B-X\	.	.	.	.	.
4A\	.	4c\	.	2f\	-rum	2a\	-rum
4F\	-rum	4A\	-rum	.	.	.	.
=115	=115	=115	=115	=115	=115	=115	=115
2B-\	a-	2d\	a-	2d\	a-	2f/	a-
2F\	-men	2c\	-men	2f\	.	2a\	-men
!LO:LB:g=original	!	!	!	!	!	!	!
=116	=116	=116	=116	=116	=116	=116	=116
2c\	a-	1c	a-	2f\	.	1g	a-
2C/	.	.	.	2e\	-men	.	.
!	!	!LO:LB:g=original	!	!	!	!	!
=117	=117	=117	=117	=117	=117	=117	=117
4F\	-men	4c\	-men	4f\	a-	4a\	-men
4r	.	4r	.	8f\L	.	8a\L	a-
.	.	.	.	8g\J	.	8b-X\J	.
2r	.	2r	.	4a\	.	4cc\	.
.	.	.	.	4b-\	.	4dd\	.
=118	=118	=118	=118	=118	=118	=118	=118
4r	.	4r	.	4a\	.	4cc\	.
8F\L	a-	8A\L	a-	4f\	-men	4a\	-men
8G\J	.	8B-\J	.	.	.	.	.
4A\	.	4c\	.	2r	.	2r	.
4B-\	-men	4d\	.	.	.	.	.
=119	=119	=119	=119	=119	=119	=119	=119
4A\	a-	4c\	.	4r	.	4r	.
4F\	-men	4A\	-men	8f\L	a-	8a\L	a-
.	.	.	.	8g\J	.	8b-\J	.
!	!	!	!	!	!	!LO:LB:g=original	!
2r	.	2r	.	4a\	.	4cc\	.
.	.	.	.	4b-\	-men	4dd\	.
!	!	!	!	!LO:LB:g=original	!	!	!
=120	=120	=120	=120	=120	=120	=120	=120
2r	.	2r	.	4a\	a-	4cc\	.
.	.	.	.	4f\	-men	4a\	-men
2A\	a-	2c\	a-	2f\	a-	2cc\	a-
=121	=121	=121	=121	=121	=121	=121	=121
2G\	.	2d\	.	2f\	.	1b-	.
2c\	.	2G/	-men	2e\	.	.	.
=122	=122	=122	=122	=122	=122	=122	=122
2F\	-men	2c\	a-	2e\	.	1a	.
2B-\	a-	2F/	.	2d\	-men	.	.
=123	=123	=123	=123	=123	=123	=123	=123
4G\	.	4B-\	.	4e\	a-	4g\	.
4F\	.	4c\	-men	4f\	.	4a\	-men
!LO:LB:g=original	!	!	!	!	!	!	!
4c\	.	2c\	a-	2e\	.	2g\	a-
4C/	.	.	.	.	.	.	.
=124	=124	=124	=124	=124	=124	=124	=124
2F\	-men	1c	.	2f\	-men	2a\	-men
2C/	a-	.	.	2e\	a-	2g\	a-
=125	=125	=125	=125	=125	=125	=125	=125
2FF/	-men.	2c\	-men.	2f\	-men.	2a\	-men.
2r	.	2r	.	2r	.	2r	.
!	!	!	!	!	!	!LO:TX:b:t=Seque Kyrie.	!
==	==	==	==	==	==	==	==
*-	*-	*-	*-	*-	*-	*-	*-
!!!system-decoration: [(s1,s2,s3,s4)]
!!!ENC: Berenika Jozajtis
!!!END: 2023-11-02
!!!ENC: Leszek Kubiak
!!!END: 2024-06-25
